X:22
T:Polka \`a L\'eon Mazi\`ere
R:polka
T:Urbain Trincal polkas III
M:2/4
L:1/8
G:G instrument - pipes
P:G pipes: 3x
K:F
e2 e2 | d/e/^f/d/ ec | d2 d2 | d/c/d/e/ c2 :| 
G/c/c/c/ G/c/c/c/ | Bd ec | G/c/c/c/ G/c/c/c/ | Bd c2 :|

